X: 0
T: The Humours Of Ballyloughlin
C: Trad
R: jig
M: 6/8
L: 1/8
K: Dmix
|:"D"A3 AGE|GED D2 B|"C"c2A ded|cAG FED|
"D"A3 AGE|"C"~G3 cGE|"D"D3 DFA|1 DED D2 A:|2 DED D2 B||
|:"C"~c3 cBc|cAG ABc|"D"~ded dfe|dAF DFA|
"C"cBc dcB|cAG FGE|"D"D3 DFA|1 DED D2 B:|2 DED D2 e||
|:"D"fdd "G"gdd|"D"fdd "G"gdd|"C"cde ged|^cde ~g3|
"D"fdd "G"gdd|"D"f2a "A"ged|"C"cde "G"g3|1 "A"ed^c "D"d2 e:|2 "A"ed^c "G"d^cB||
|:"D"A2D A2G|~F3 FED|"C"~E3 EFG|~E3 EFG|
"D"A3 dAG|~F3 "C"GEA|"D"D3 DFA|1 DED D2 A:|2 DED D3|| 